X: 1
A:Adam de la Halle
T:Fi maris de vostre amour
N: (condensed)
M:3/4
L:1/4
Q:1/4=120
K:F Lydian
%
V:1 clef=treble
V:2 clef=treble-8 middle=B,
V:3 clef=treble-8 middle=B,
%%MIDI program 1       70 bassoon
%%MIDI program 2       71 clarinet
%%MIDI program 3       72 piccolo
%
[V:1][K:C] C2 (3:2:2D/E   | F2 (3:2:2F/G| A2  (3A/G/F/ | G2   
[V:2][K:C] F2     (3F/E/D/| C2       D  | E2  (3E/D/C/ | D2   
[V:3][K:F] F,2      G,    | F,2      B, | A,2   A,     | G,2
